**kern	**kern
*staff2	*staff1
*clefF4	*clefG2
*k[f#c#g#]	*k[f#c#g#]
*M2/4	*M2/4
*A:	*A:
=-	=-
8AA]	8e
=17	=17
8AL 8c#	4e 4ee
8EJ	.
8AL 8c#	4e 4ee
8EJ	.
=18	=18
8BL 8d	8eL 8dd
8EJ	8bJ
8BL 8d	4g#
8EJ	.
=19	=19
8AL 8c#	8eeL
8EJ	8eeJ
8AL 8c#	8eeL
8EJ	8eeJ
=20	=20
8BL 8d	8eL 8dd
8EJ	8bJ
8BL 8d	8g#
8EJ	8r
=21	=21
4A 4c#	16aLL
.	16cc#
.	16b
.	16ddJJ
4r	16cc#LL
.	16ee
.	16dd
.	16ff#JJ
=22	=22
2r	4ee
.	8aa
.	8r
=23	=23
4E 4e	4cc#
4E 4d	(16bLL
.	16a
.	16b
.	16cc#JJ)
=24	=24
4A 4c#	4a
8AA	8r
==	==
*-	*-
